X:335
T: Nur vorsichtig (74), S. 210
N: T0224
O: Luxemburg
S: Singendes Volk, Esch-Alzette 1937 posth.]
N: Straen, fff Witry, 10.1.1933
R: Liebeslieder]
M: 4/4
L: 1/8
K: A
A2 | E2E2E2A2 | F2F2F2
F2 | E2A2c2A2 | A4z2
E2 | c2c2c2e2 | d2B2B2
E2 | d2d2dcd2 | e2c2A2
A2 | A2A2c2A2 | F2D2D2
D2 | CEA2d2G2 | A4z2

